X: 1
T: From Manchester To Providence
M: 4/4
L: 1/8
R: reel
K: Dmix
FDDD GBAG | FDDD cAB^c | dfed cAAG |1 FGAD G2 AG :|2  FGAD G2 FG ||
Adfd ed^ce | dfaf gfed | Adfd ed^ce | dcAF G2 FG |
Adfd ed^ce | dfaf g2 fg | afge dfed | dcAF G2 FG ||
AFFF dFFF | Adfd ed^ce | dcAF G2 FG | ABcA G2 FG |
AFFF dFFF | Adfa g2 fg | afge dfed | dcAF G2 AG ||
Adfd ed^ce | dfaf gfed | Adfd ed^ce | dcAF G2 FG |
Adfd ed^ce | dfaf g2 fg | afge dfed | dcAF G2 FG ||
